X: 5740
T: Caher Rua
R: reel
M: 4/4
K: Dmajor
d2fd cedc|~B3d AFEF||D2FA BAFB|ABde feef|
dA~A2 BAFB|AFBF AFEF|D2FA BAFB|ABde fddc:|
|:dD~D2 ADFA|dcde fdef|g2eg fedf|egfd edBc|
dD~D2 dDFA|dcde fdef|1 g2eg fcdB|AFGE D2FA:|2 g2eg fdfa|gabg efge||

